X:21
T:Sir Robert Harlands Reel. Tho24CDs1792.21
M:4/4
R:Reel
Q:1/4=118
L:1/8
C:"93"
W: First Lady set to the 2d Gent & turn the 3d .|
W: 1st Gent: set to the 2d Lady & turn the 3d :|
W: set 3 & 3 Top & Bottom & turn :|.
W: set 3 & 3 Sides & turn :|
B:Thompson 24 CDs 1792
Z:Village Music Project, Anne Wride, 2017
K:Gm
|:G/G/G BG dGBG|F/F/F AF cFAF|G/G/G BG dGBG|DdcA G/G/G G2:|
|:gdBd gbgd|fcAc fafc|gdBd gbgd|cA^FA G/G/G G2:|

